brandFactory_export/2.Regular/Casa hogar_2Regular.svg

<?xml version="1.0" encoding="UTF-8"?>
<svg width="24px" height="24px" viewBox="0 0 24 24" version="1.1" xmlns="http://www.w3.org/2000/svg" xmlns:xlink="http://www.w3.org/1999/xlink">
    <title>2.Regular/Casa hogar_2Regular</title>
    <g id="Symbols" stroke="none" stroke-width="1" fill="none" fill-rule="evenodd">
        <g id="2.Regular/Casa-hogar_2Regular" fill="#5CB615" fill-rule="nonzero">
            <path d="M16.097479,22.1714286 L18.7966387,22.1714286 C19.1327731,22.1714286 19.405042,21.9563025 19.405042,21.6907563 L19.405042,12.6453782 C19.4117647,12.2386555 19.7478992,11.912605 20.1579832,11.9193277 L21.512605,11.9193277 C21.8319328,11.9193277 22.0201681,11.7512605 22.087395,11.589916 C22.1344538,11.4756303 22.1579832,11.3109244 21.9831933,11.1361345 L12.2823529,1.60336134 C12.0470588,1.37142857 11.5731092,1.37142857 11.3378151,1.60336134 L1.64033613,11.1428571 C1.46554622,11.3142857 1.48907563,11.4823529 1.5394958,11.5966387 C1.60672269,11.7546218 1.79495798,11.9226891 2.11428571,11.9226891 L3.33445378,11.9226891 C3.74117647,11.9159664 4.07731092,12.2386555 4.08403361,12.6487395 L4.08403361,21.6941176 C4.08403361,21.9596639 4.35630252,22.1747899 4.68907563,22.1747899 L7.58991597,22.1747899 L7.58991597,17.6605042 C7.59663866,17.2537815 7.93277311,16.9277311 8.34285714,16.9344538 L15.3478992,16.9344538 C15.7546218,16.9277311 16.0907563,17.2504202 16.097479,17.6605042 L16.097479,22.1714286 L16.097479,22.1714286 Z M18.7966387,23.6236326 L15.3445378,23.6236326 C14.9378151,23.6302521 14.6016807,23.307563 14.594958,22.897479 L14.594958,18.3865546 L9.09243697,18.3865546 L9.09243697,22.897479 C9.08571429,23.3042017 8.74957983,23.6302521 8.34285714,23.6236326 L4.68907563,23.6236326 C3.52605042,23.6236326 2.57815126,22.7563025 2.57815126,21.6941176 L2.57815126,13.3747899 L2.11428571,13.3747899 C1.24705882,13.3747899 0.47394958,12.897479 0.154621849,12.1579832 C-0.151260504,11.4588235 0.00672268908,10.6789916 0.571428571,10.1310924 L10.2689076,0.588235294 C11.0621849,-0.194957983 12.5613445,-0.194957983 13.3579832,0.588235294 L23.0554622,10.1277311 C23.6168067,10.6789916 23.7781513,11.4554622 23.4722689,12.1546218 C23.1529412,12.8941176 22.3798319,13.3714286 21.512605,13.3714286 L20.907563,13.3714286 L20.907563,21.6907563 C20.907563,22.7563025 19.9596639,23.6236326 18.7966387,23.6236326 L18.7966387,23.6236326 Z" id="Casa-hogar_2Regular"></path>
        </g>
    </g>
</svg>

<svg width="24" height="24" viewBox="0 0 24 24" xmlns="http://www.w3.org/2000/svg"><path d="M16.097 22.171h2.7c.336 0 .608-.215.608-.48v-9.046a.74.74 0 01.753-.726h1.355c.319 0 .507-.168.574-.33.047-.113.071-.278-.104-.453l-9.7-9.533c-.236-.232-.71-.232-.945 0l-9.698 9.54c-.174.171-.15.34-.1.454.067.158.255.326.574.326h1.22a.737.737 0 01.75.726v9.045c0 .266.272.48.605.48h2.9v-4.513a.74.74 0 01.754-.727h7.005a.737.737 0 01.75.727v4.51zm2.7 1.453h-3.452a.737.737 0 01-.75-.727v-4.51H9.092v4.51a.739.739 0 01-.75.727H4.69c-1.163 0-2.11-.868-2.11-1.93v-8.32h-.465c-.867 0-1.64-.477-1.96-1.216-.305-.7-.147-1.479.417-2.027L10.27.588c.793-.783 2.292-.783 3.089 0l9.697 9.54c.562.551.723 1.327.417 2.027-.32.74-1.092 1.216-1.96 1.216h-.604v8.32c0 1.065-.948 1.933-2.111 1.933z" fill="#5CB615" fill-rule="nonzero"/></svg>
